packages/core/src/svgs/arb.svg

<svg width="24" height="24" viewBox="0 0 24 24" fill="none" xmlns="http://www.w3.org/2000/svg">
<g clip-path="url(#clip0_31_6032)">
<path d="M0 0H24V24H0V0Z" fill="url(#paint0_linear_31_6032)"/>
<path fill-rule="evenodd" clip-rule="evenodd" d="M19.2857 7.28592C19.2858 7.57024 19.2292 7.85171 19.1194 8.11396C19.0096 8.3762 18.8486 8.61397 18.646 8.8134C18.4434 9.01284 18.2031 9.16996 17.9391 9.27561C17.6752 9.38126 17.3928 9.43333 17.1086 9.42878C17.13 9.56592 17.1429 9.71164 17.1429 9.85735V15.8574C17.1429 16.5393 16.8719 17.1934 16.3897 17.6756C15.9075 18.1579 15.2534 18.4288 14.5714 18.4288H8.57143C7.88944 18.4288 7.23539 18.1579 6.75315 17.6756C6.27092 17.1934 6 16.5393 6 15.8574V9.85735C6 9.17537 6.27092 8.52131 6.75315 8.03908C7.23539 7.55684 7.88944 7.28592 8.57143 7.28592H14.5714C14.7171 7.28592 14.8629 7.29878 15 7.32021V7.28592C15 6.7176 15.2258 6.17256 15.6276 5.77069C16.0295 5.36883 16.5745 5.14307 17.1429 5.14307C17.7112 5.14307 18.2562 5.36883 18.6581 5.77069C19.0599 6.17256 19.2857 6.7176 19.2857 7.28592ZM15.0557 7.77021C14.8969 7.73331 14.7344 7.71462 14.5714 7.7145H8.57143C8.00311 7.7145 7.45806 7.94026 7.0562 8.34212C6.65434 8.74399 6.42857 9.28903 6.42857 9.85735V15.8574C6.42857 16.4257 6.65434 16.9707 7.0562 17.3726C7.45806 17.7744 8.00311 18.0002 8.57143 18.0002H14.5714C15.1397 18.0002 15.6848 17.7744 16.0867 17.3726C16.4885 16.9707 16.7143 16.4257 16.7143 15.8574V9.85735C16.7143 9.69021 16.6971 9.52735 16.6586 9.37307C16.2683 9.28247 15.9112 9.08426 15.6278 8.80093C15.3445 8.5176 15.1463 8.16052 15.0557 7.77021ZM16.7143 6.00021V6.85735H15.8571V7.7145H16.7143V8.57164H17.5714V7.7145H18.4286V6.85735H17.5714V6.00021H16.7143ZM7.92857 15.8574H6.64286L8.57143 9.85735H9.85714L11.5714 14.5716V9.85735H14.1429C14.7129 9.85735 15.8571 10.2002 15.8571 11.5716C15.8571 12.9431 15.1414 13.2859 14.7857 13.2859L16.2857 15.8574H14.7857L13.5 13.2859H12.8571V15.8574H10.9286L10.4143 14.5716H8.31429L7.92857 15.8574ZM8.57143 13.7145H10.0714L9.21429 11.5716L8.57143 13.7145ZM13.9286 12.4288H12.8571V10.7145H13.9286C14.1429 10.7145 14.5714 10.8859 14.5714 11.5716C14.5714 12.2574 14.1429 12.4288 13.9286 12.4288ZM11.1429 17.1259V17.0616C11.1429 17.0488 11.1471 17.0445 11.16 17.0445H11.2243V16.3931H11.16C11.1514 16.3931 11.1429 16.3888 11.1429 16.3759V16.3116C11.1429 16.2988 11.1514 16.2859 11.16 16.2859H11.43C11.5157 16.2859 11.5843 16.3031 11.6357 16.3374C11.6871 16.3716 11.7129 16.4231 11.7129 16.4874C11.7129 16.5302 11.7 16.5731 11.67 16.6074C11.6457 16.6407 11.6133 16.6673 11.5757 16.6845C11.6357 16.6931 11.6829 16.7188 11.7129 16.7531C11.7471 16.7959 11.76 16.8388 11.76 16.8945C11.76 16.9631 11.7386 17.0231 11.6871 17.0659C11.6313 17.1113 11.562 17.1369 11.49 17.1388L11.3271 17.1431H11.16C11.1471 17.1431 11.1429 17.1388 11.1429 17.1259ZM11.3571 16.7488V17.0488H11.4086C11.4771 17.0488 11.5329 17.0359 11.5714 17.0102C11.61 16.9888 11.6271 16.9459 11.6271 16.8902C11.6271 16.7959 11.5671 16.7488 11.4429 16.7488H11.3571ZM11.3571 16.3888V16.6459H11.4C11.5157 16.6459 11.5757 16.6031 11.5757 16.5174C11.5757 16.4659 11.5629 16.4316 11.5329 16.4145C11.4962 16.3944 11.4545 16.3855 11.4129 16.3888H11.3571ZM12.0514 16.3931V17.0445H12.1157C12.1243 17.0445 12.1329 17.0488 12.1329 17.0616V17.1259C12.1329 17.1388 12.1243 17.1431 12.1157 17.1431H11.8586C11.8457 17.1431 11.8371 17.1388 11.8371 17.1259V17.0616C11.8371 17.0488 11.8457 17.0445 11.8543 17.0445H11.9186V16.3931H11.8543C11.8457 16.3931 11.8371 16.3888 11.8371 16.3759V16.3116C11.8371 16.2988 11.8457 16.2859 11.8543 16.2859H12.1114C12.1243 16.2859 12.1329 16.2988 12.1329 16.3116V16.3759C12.1329 16.3888 12.1243 16.3931 12.1157 16.3931H12.0514ZM12.3643 17.1431H12.6943C12.7071 17.1431 12.7114 17.1388 12.7114 17.1259V17.0616C12.7114 17.0488 12.7071 17.0445 12.6943 17.0445H12.5957V16.3931H12.7586L12.75 16.4916C12.75 16.5045 12.7543 16.5088 12.7671 16.5088H12.84C12.8529 16.5088 12.8571 16.5045 12.8571 16.4916V16.3116C12.8571 16.2988 12.8529 16.2859 12.84 16.2859H12.2143C12.2057 16.2859 12.1971 16.2988 12.1971 16.3116V16.4916C12.1971 16.5045 12.2057 16.5088 12.2143 16.5088H12.2871C12.3 16.5088 12.3043 16.5045 12.3043 16.4916L12.3 16.3931H12.4586V17.0445H12.36C12.3514 17.0445 12.3429 17.0488 12.3429 17.0616V17.1259C12.3429 17.1388 12.3514 17.1431 12.36 17.1431H12.3643Z" fill="#FCFCFC"/>
</g>
<defs>
<linearGradient id="paint0_linear_31_6032" x1="4.46571" y1="4.16143" x2="29.2071" y2="32.58" gradientUnits="userSpaceOnUse">
<stop stop-color="#1A1E21"/>
<stop offset="1" stop-color="#06060A"/>
</linearGradient>
<clipPath id="clip0_31_6032">
<rect width="24" height="24" fill="white"/>
</clipPath>
</defs>
</svg>

<svg xmlns="http://www.w3.org/2000/svg" width="24" height="24" fill="none" viewBox="0 0 24 24"><g clip-path="url(#a)"><path fill="url(#b)" d="M0 0h24v24H0z"/><path fill="#FCFCFC" fill-rule="evenodd" d="M19.286 7.286a2.14 2.14 0 0 1-2.177 2.143c.021.137.034.283.034.428v6a2.57 2.57 0 0 1-2.572 2.572h-6A2.57 2.57 0 0 1 6 15.857v-6a2.57 2.57 0 0 1 2.571-2.571h6c.146 0 .292.013.429.034v-.034a2.143 2.143 0 0 1 4.286 0m-4.23.484a2.2 2.2 0 0 0-.485-.055h-6A2.143 2.143 0 0 0 6.43 9.857v6A2.143 2.143 0 0 0 8.57 18h6a2.143 2.143 0 0 0 2.143-2.143v-6q.001-.252-.055-.484a2.14 2.14 0 0 1-1.603-1.603M16.714 6v.857h-.857v.857h.857v.858h.857v-.857h.858v-.858h-.858V6zM7.93 15.857H6.643l1.928-6h1.286l1.714 4.715V9.857h2.572c.57 0 1.714.343 1.714 1.715 0 1.371-.716 1.714-1.071 1.714l1.5 2.571h-1.5L13.5 13.286h-.643v2.571H10.93l-.515-1.285h-2.1zm.642-2.142h1.5l-.857-2.143zm5.358-1.286h-1.072v-1.715h1.072c.214 0 .642.172.642.858s-.428.857-.642.857m-2.786 4.697v-.064q-.001-.019.017-.018h.064v-.65h-.064q-.015 0-.017-.018v-.064c0-.013.008-.026.017-.026h.27q.128 0 .206.051a.17.17 0 0 1 .077.15.18.18 0 0 1-.043.12.24.24 0 0 1-.094.078c.06.008.107.034.137.068a.2.2 0 0 1 .047.142.21.21 0 0 1-.073.17.33.33 0 0 1-.197.074l-.163.004h-.167q-.018.001-.017-.017m.214-.377v.3h.052a.3.3 0 0 0 .162-.039c.039-.021.056-.064.056-.12q.001-.141-.184-.141zm0-.36v.257h.043q.175 0 .176-.129.001-.076-.043-.102a.2.2 0 0 0-.12-.026zm.694.004v.651h.065c.008 0 .017.005.017.018v.064c0 .013-.009.017-.017.017h-.257q-.02.001-.022-.017v-.064c0-.013.009-.018.017-.018h.065v-.65h-.065c-.008 0-.017-.005-.017-.018v-.064c0-.013.009-.026.017-.026h.257c.013 0 .022.013.022.026v.064c0 .013-.009.017-.017.017zm.313.75h.33q.018.001.017-.017v-.064q.001-.019-.017-.018h-.098v-.65h.163l-.009.098q-.001.017.017.017h.073q.018 0 .017-.017v-.18c0-.013-.004-.026-.017-.026h-.626c-.008 0-.017.013-.017.026v.18c0 .012.009.017.017.017h.073q.018 0 .017-.017l-.004-.099h.159v.651h-.099q-.015 0-.017.018v.064q.002.018.017.017z" clip-rule="evenodd"/></g><defs><linearGradient id="b" x1="4.466" x2="29.207" y1="4.161" y2="32.58" gradientUnits="userSpaceOnUse"><stop stop-color="#1A1E21"/><stop offset="1" stop-color="#06060A"/></linearGradient><clipPath id="a"><path fill="#fff" d="M0 0h24v24H0z"/></clipPath></defs></svg>
